X:166
T:Shuter's Humour. JJo8.166
B:J.Johnson Choice Collection Vol 8 1758
Z:vmp.Simon Wilson 2013 www.village-music-project.org.uk
M:2/4
L:1/8
Q:1/2=90
K:D
|:c|d2(f/g/a)|fdec|d2(f/g/a)|e2g2|fdec|dBAG|FeEd|D2d:|
|:e|fdec|fdec|dBcA|^G2A2|(A/B/c) (B/c/d)|cefd|caB^g|[Aa]2Ac|
d2(f/g/a)|fdec|d2(f/g/a)|e2g2|(f/g/a) fd|ecdB|AGFE|D2d:|
